dist/img/references/zara.svg

<svg width="96" height="40" viewBox="0 0 96 40" fill="none" xmlns="http://www.w3.org/2000/svg">
<path d="M90.2026 38.8164L76.1159 0.025676L76.1063 0H75.8283L72.9275 7.97136L67.6465 22.4834L67.6341 22.4719C65.8039 20.8566 63.2216 19.8469 59.9695 19.4709L58.9776 19.3685L59.9616 19.2423C65.3247 18.2784 68.9297 14.8907 68.9297 10.8091C68.9297 5.21214 63.6664 1.30548 56.1271 1.30548H40.4403V1.58887H44.9984V30.5096L33.9284 0.0255809L33.9184 0H33.6404L30.7395 7.97136L19.5512 38.7166L19.4823 38.7246C19.2911 38.7481 19.102 38.7669 18.9149 38.7811C18.6335 38.8031 18.3536 38.8163 18.073 38.8163H6.76803L28.2572 1.58877L28.4169 1.309H2.13482V12.8252H2.41368C2.46313 7.21582 5.72929 1.58877 12.9456 1.58877H21.6516L0 39.0953H29.1688V28.062H28.89C28.8519 32.9511 26.0809 37.5948 20.0552 38.6434L19.8636 38.6761L24.4527 26.0601H37.3082L41.9405 38.8164H37.3709V39.0953H55.3062V38.8164H50.7171V19.5742H56.0123C61.4009 19.5742 64.4915 21.982 64.4915 26.1782V29.5915C64.4915 29.9676 64.5171 30.5175 64.5453 30.9774V30.9941L61.6992 38.8146H57.9811V39.0935H65.6775V38.8146H61.9994L64.5912 31.6932C64.5965 31.7621 64.5992 31.8035 64.5992 31.8035L64.6707 32.4453L64.7395 32.8698C65.172 35.4958 66.1762 37.4261 67.7233 38.6071L67.9457 38.7687C69.1212 39.586 70.5818 40 72.2894 40C74.5514 40 76.0595 39.436 77.3047 38.1085L77.1415 37.9549C75.9942 39.014 75.0314 39.4431 73.825 39.4431C71.7696 39.4431 70.6939 36.9495 70.6939 34.4904V29.708C70.7048 28.5214 70.519 27.3412 70.144 26.2153L70.0929 26.0671V26.0617H79.4959L84.1281 38.8181H79.5586V39.0971H95.0794V38.8181L90.2026 38.8164ZM24.555 25.7811L30.888 8.37922L37.2067 25.7811H24.555ZM50.7199 19.2943V1.58877H54.7617C60.161 1.58877 63.0115 4.79904 63.0115 10.8692C63.0115 17.325 61.3753 19.2943 56.0123 19.2943H50.7199ZM69.9834 25.7811L69.956 25.7122C69.5381 24.6943 68.9297 23.7656 68.1635 22.9759L67.8988 22.7111L67.8706 22.6847L73.0721 8.37922L79.3909 25.7811H69.9834Z" fill="black"/>
</svg>

<svg width="96" height="40" viewBox="0 0 96 40" fill="none" xmlns="http://www.w3.org/2000/svg"><path d="M90.203 38.816L76.116.026 76.106 0h-.278l-2.9 7.971-5.281 14.512-.013-.011c-1.83-1.615-4.412-2.625-7.665-3.001l-.991-.102.984-.127c5.363-.964 8.968-4.351 8.968-8.433 0-5.597-5.264-9.504-12.803-9.504H40.44v.284h4.558v28.92L33.928.027 33.918 0h-.278l-2.9 7.971-11.19 30.746-.069.008a12.25 12.25 0 01-1.409.091H6.768L28.258 1.59l.159-.28H2.135v11.516h.279C2.464 7.215 5.729 1.59 12.946 1.59h8.706L0 39.095h29.169V28.062h-.279c-.038 4.89-2.81 9.533-8.835 10.581l-.191.033 4.589-12.616h12.855l4.633 12.756h-4.57v.28h17.935v-.28h-4.589V19.574h5.295c5.389 0 8.48 2.408 8.48 6.604v3.413c0 .377.025.926.053 1.386v.017l-2.846 7.82h-3.718v.28h7.696v-.28H62l2.592-7.12c.006.068.008.11.008.11l.072.641.069.425c.432 2.626 1.436 4.556 2.983 5.737l.223.162C69.12 39.586 70.582 40 72.289 40c2.262 0 3.77-.564 5.016-1.892l-.164-.153c-1.147 1.059-2.11 1.488-3.316 1.488-2.055 0-3.131-2.493-3.131-4.953v-4.782a10.74 10.74 0 00-.55-3.493l-.051-.148v-.005h9.403l4.632 12.756h-4.57v.28H95.08v-.28l-4.876-.002zM24.555 25.781L30.888 8.38l6.319 17.402H24.555zm26.165-6.487V1.59h4.042c5.399 0 8.25 3.21 8.25 9.28 0 6.456-1.637 8.425-7 8.425H50.72zm19.263 6.487l-.027-.069a8.644 8.644 0 00-1.793-2.736l-.264-.265-.028-.026 5.201-14.306 6.319 17.402h-9.408z" fill="#000"/></svg>
